X:12782
T:Pantheon, The
T:Gant's Rant
R:Jig
O:England
M:6/8
A:Lancaster
B:Winder
K:G
A|\
d2d d2c | B2B B2A | G2G AGA | B3 ABc | \
d2d d2c | B2B B2A | G2G ABA | G3 G2 :|*
|:a | b2b bag | a2d def | g2g gfe | f2B Bcd | \
e2e edc | d2G GAB | cdc BcB | [1 A3 A2 :| [2 A3 G2 ||**
